X:25
T:Sicilian March. RH.025
T:Sicilian Dance, aka. RH.025
R:Jig
S:Rev.R.Harrison’s MS,c1815,Cumbria
O:England
A:Temple Sowerby,Cumbria
Z:vmp.Simon Wilson. Review PJH, 2008.
M:6/8
L:1/8
Q:3/8=110
K:G
GAG BAG|d2d d2c|Bdg d2c|BcA G2D|\
G>AG BAG|d2d d2g|fgf ed^c|d3 d3||!
a2d c’2b|agf gfg|a2d c’2b|agf g3|\
ec’c’ dbb|caa g2B|ABc d2F|G3 G3||!
B3 AGA|G2G G2B|d3 cBc|B2B B2d|\
g2f f2e|e2d d2c|Bcd dcB|B3 A3||!
g3 ge^c|ded dfa|c’3 c’af|a2g g2d|\
b2a g2f|e2d c2B|ABA d2F|G3 G3|]

